icons/svg/repeat.svg

<svg xmlns="http://www.w3.org/2000/svg" version="1.1" baseProfile="full" width="24" height="24" viewBox="0 0 24.00 24.00" xml:space="preserve"><path fill="#000" fill-opacity="1" stroke-linejoin="round" d="M17 17H7v-3l-4 4 4 4v-3h12v-6h-2M7 7h10v3l4-4-4-4v3H5v6h2V7z"/></svg>

﻿<?xml version="1.0" encoding="utf-8"?>
<!DOCTYPE svg PUBLIC "-//W3C//DTD SVG 1.1//EN" "http://www.w3.org/Graphics/SVG/1.1/DTD/svg11.dtd">
<svg xmlns="http://www.w3.org/2000/svg" xmlns:xlink="http://www.w3.org/1999/xlink" version="1.1" baseProfile="full" width="24" height="24" viewBox="0 0 24.00 24.00" enable-background="new 0 0 24.00 24.00" xml:space="preserve">
	<path fill="#000000" fill-opacity="1" stroke-linejoin="round" d="M 17,17L 7,17L 7,14L 3,18L 7,22L 7,19L 19,19L 19,13L 17,13M 7,7L 17,7L 17,10L 21,6L 17,2L 17,5L 5,5L 5,11L 7,11L 7,7 Z "/>
</svg>
